X: 15
T: Silver Spear, The
Z: UPipes & harp
S: https://thesession.org/tunes/182#setting49227
R: reel
M: 4/4
L: 1/8
K: Gmaj
AG|:{E}FA{c}AF {c}BAFA|dfed BddA|FA ~A2 {c}BAFA|dfed {Bc}B2 AG|
FA{c}AF {c}BAFA|dfed Bdef|~g3 e ~f3 e|1 dfed B2 AG:|2 dfed B2 Ag||
|:fa ~a2 bgaf|(3gfe fd edBd|fa ~a2 bgaf|dfed B2 Ag|
fa ~a2 bgaf|(3gfe fd edBd|~g3 e ~f3 e|1 dfed B2 A g:|2 dfed B2 A2||

